!!!COM: Bach, Johann Sebastian
!!!OPR: Joh. Seb. Bachs vierstimmige Choralgesänge
!!!XEN: Four-part Chorales
!!!OTL: 38. Das walt' mein Gott, Vater, Sohn
!!!SCT: BWV 291
!!!SCA: Thematisch-systematisches Verzeichnis der musikalischen Werke Johann Sebastian Bach: Bach-Werke-Verzeichnis (Schmieder)
!!!YOR: Bach Gesellschaft Edition xxxix
!!!ENC: Steven Rasmussen
!!!CDT: 1685/3//-1750/7/28/
!!!OCY: Deutschland
!!!YEC: Copyright (c) 1994, 2000 Center for Computer Assisted Research in the Humanities
!!!YEM: Rights to all derivative editions reserved
!!!YEN: United States of America
**kern	**kern	**kern	**kern	**silbe
*I:[BASSO]	*I:[TENORE]	*I:[ALTO]	*I:[SOPRANO]	*I:[SOPRANO]
*clefF4	*clefGv2	*clefG2	*clefG2	*
*k[b-]	*k[b-]	*k[b-]	*k[b-]	*
*F:	*F:	*F:	*F:	*
*M4/4	*M4/4	*M4/4	*M4/4	*
4D	4A	4d	4f	Das
=1	=1	=1	=1	=1
8AAL	4A	4c	4f	walt'
8BB-J	.	.	.	.
4C	16GLL	4c	4e	mein
.	16AJ	.	.	.
.	8B-J	.	.	.
2FF	2A	2c	2f	Gott,
=2	=2	=2	=2	=2
4.F	4c	4f	4a	Va-
.	4c	4g	4cc	-ter,
8E	.	.	.	.
8DL	8dL	8fL	4b-	Sohn
8EJ	8cJ	8gJ	.	.
4F	4c	8gL	4a	und
.	.	8fJ	.	.
=3	=3	=3	=3	=3
4C	4c	8fL	4g	heil'-
.	.	8eJ	.	.
4BBn	8GL	4d	4g	-ger
.	8FJ	.	.	.
4C;	(8FL	4c;	4g;	Geist,
.	8E;J)	.	.	.
4AA	4F	4c	4c	der
=4	=4	=4	=4	=4
4BB-	8FL	4B-	8dL	mich
.	8GJ	.	8eJ	.
8AAL	4A	8cL	4f	er
8BB-J	.	8dJ	.	.
4C	8GL	4c	4f	schaf-
.	8AJ	.	.	.
4CC	4B-	4c	4e	-fen
=5	=5	=5	=5	=5
2FF;	2A;	2c;	2f;	hat,
4r	4r	4r	4r	.
4FF	8AL	4c	8fL	mir
.	8B-J	.	8gJ	.
=6	=6	=6	=6	=6
4.F	4c	4f	4a	Leib
.	4c	4g	4g	und
8E	.	.	.	.
8FL	4c	4f	4a	Seel'
8EJ	.	.	.	.
4D	4d	4f	4b-	ge-
=7	=7	=7	=7	=7
8AAL	2c	2f	2cc	-ge-
8GG	.	.	.	.
8AA	.	.	.	.
8BB-J	.	.	.	.
4C;	4c;	4e;	4g;	-ben,
4BBn	4d	8gL	4g	im
.	.	8fJ	.	.
=8	=8	=8	=8	=8
8CL	4c	4e	4g	Mut-
8EJ	.	.	.	.
8GL	4Bn	4d	4g	-ter-
8FJ	.	.	.	.
8EL	4c	4e	4g	-leib
8DJ	.	.	.	.
8CL	4c	4e	4g	das
8BB-J	.	.	.	.
=9	=9	=9	=9	=9
8AAL	8c#L	8eL	2a	Le-
8BBn	8Bn	8d	.	.
8C#	8A	8e	.	.
8AAJ	8GJ	8c#J	.	.
4D;	4F;	4d;	4a;	-ben,
4D	4A	8dL	4f	ge-
.	.	8cnJ	.	.
=10	=10	=10	=10	=10
8DL	4.G	4B-	4e	-sund
8C#J	.	.	.	.
8DL	.	4A	4d	ohn'
8FFJ	8F	.	.	.
8GGL	4E	4B-	4d	al-
8EEJ	.	.	.	.
4AA	8EL	4A	4c#	-len
.	8GJ	.	.	.
=11	=11	=11	=11	=11
2.DD;	2.F#;	2.A;	2.d;	Schad'.
==|!	==|!	==|!	==|!	==|!
*-	*-	*-	*-	*-
!!!RWG: Key is interpreted using the Humdrum key tool.
!!!URL-pdf: https://s9.imslp.org/files/imglnks/usimg/6/6b/IMSLP24489-PMLP09471-CCARH_Bach_Chorales.pdf#page=26 Musedata edition
!!!URL-pdf: https://s9.imslp.org/files/imglnks/usimg/7/7a/IMSLP04155-Bach_-_BGA_253-438.pdf#page=21 	Bach-Gesellschaft Ausgabe, Band 39 (pp.175-276) Leipzig: Breitkopf und Härtel, 1892. Plate B.W. XXXIX.
!!!END: 1994/05/16
!!!EMD: Converted from MuseData to Humdrum Dec 19, 2000, by Andreas Kornstaedt using muse2kern.
!!!EED: Craig Stuart Sapp
!!!EEV: 2024/03/31
!!!filter-keyboard: satb2gs
